dist/img/pazle.svg

<svg width="40" height="40" viewBox="0 0 40 40" fill="none" xmlns="http://www.w3.org/2000/svg">
<path fill-rule="evenodd" clip-rule="evenodd" d="M36.439 37.9081H33.3752C33.1247 37.9081 32.9247 37.7064 32.9247 37.4575C32.9247 37.2088 33.1247 37.007 33.3752 37.007H36.439C36.6877 37.007 36.8896 37.2088 36.8896 37.4575C36.8896 37.7064 36.6877 37.9081 36.439 37.9081Z" fill="#192331"/>
<path fill-rule="evenodd" clip-rule="evenodd" d="M34.9072 39.4399C34.6567 39.4399 34.4566 39.2382 34.4566 38.9893V35.9255C34.4566 35.6768 34.6567 35.475 34.9072 35.475C35.1559 35.475 35.3577 35.6768 35.3577 35.9255V38.9893C35.3577 39.2382 35.1559 39.4399 34.9072 39.4399Z" fill="#192331"/>
<path fill-rule="evenodd" clip-rule="evenodd" d="M4.33431 2.25279C3.5882 2.25279 2.98265 2.85906 2.98265 3.60446C2.98265 4.34985 3.5882 4.95612 4.33431 4.95612C5.08043 4.95612 5.68598 4.34985 5.68598 3.60446C5.68598 2.85906 5.08043 2.25279 4.33431 2.25279ZM4.33431 5.85723C3.09259 5.85723 2.08154 4.84672 2.08154 3.60446C2.08154 2.36237 3.09259 1.35168 4.33431 1.35168C5.57604 1.35168 6.58709 2.36237 6.58709 3.60446C6.58709 4.84672 5.57604 5.85723 4.33431 5.85723Z" fill="#4284F3"/>
<path fill-rule="evenodd" clip-rule="evenodd" d="M20.7183 32.1465C20.6552 32.1016 20.594 32.054 20.5345 32.0039L20.7183 32.1465Z" fill="#F3F6F5"/>
<path fill-rule="evenodd" clip-rule="evenodd" d="M20.7183 32.597C20.6282 32.597 20.5363 32.57 20.457 32.5141C20.3831 32.4615 20.311 32.4053 20.2425 32.347C20.0533 32.1857 20.0299 31.9014 20.1921 31.7119C20.3525 31.5223 20.6372 31.4996 20.8264 31.6606C20.8751 31.7022 20.9256 31.7417 20.9778 31.7788C21.1815 31.9224 21.2301 32.2038 21.086 32.4069C20.9976 32.5307 20.8589 32.597 20.7183 32.597Z" fill="#192331"/>
<path fill-rule="evenodd" clip-rule="evenodd" d="M8.70472 39.0414H0.450562V20.9327H7.97842V21.9186C7.97842 22.279 7.82884 22.6196 7.58013 22.8809C7.11156 23.3765 6.83402 24.0542 6.85925 24.7949C6.90791 26.1411 7.99104 27.2567 9.33549 27.3396C10.8746 27.4351 12.1506 26.215 12.1506 24.6976C12.1506 23.9839 11.8676 23.3369 11.408 22.8611C11.1593 22.6034 11.0314 22.2538 11.0314 21.8969V20.9327H18.5592V27.3594C18.5592 27.9668 19.053 28.4606 19.6604 28.4606H19.6766C19.9217 28.4606 20.1524 28.3543 20.32 28.1759C20.821 27.6406 21.5455 27.3144 22.3457 27.3414C23.692 27.3901 24.8057 28.4732 24.8886 29.8177C24.9841 31.3568 23.7658 32.6327 22.2484 32.6327C21.6789 32.6327 21.1508 32.4529 20.7183 32.1465L8.70472 39.0414Z" fill="#F3F6F5"/>
<path fill-rule="evenodd" clip-rule="evenodd" d="M8.70471 39.492H0.450554C0.201848 39.492 0 39.2903 0 39.0414V20.9327C0 20.6838 0.201848 20.4822 0.450554 20.4822H7.97842C8.22712 20.4822 8.42897 20.6838 8.42897 20.9327V21.9185C8.42897 22.3857 8.24334 22.8377 7.90633 23.1915C7.50083 23.6197 7.28997 24.1841 7.30979 24.7796C7.34944 25.8939 8.25235 26.8215 9.36252 26.89C9.97708 26.9289 10.561 26.7182 11.0079 26.2992C11.4531 25.8793 11.7 25.3105 11.7 24.6976C11.7 24.1264 11.4819 23.5854 11.0836 23.1743C10.7592 22.8377 10.5808 22.3842 10.5808 21.8969V20.9327C10.5808 20.6838 10.7827 20.4822 11.0314 20.4822H18.5592C18.8079 20.4822 19.0098 20.6838 19.0098 20.9327V27.3594C19.0098 27.7181 19.3018 28.01 19.6604 28.01C19.7938 28.01 19.9055 27.9592 19.992 27.8673C20.6011 27.2167 21.4662 26.8649 22.3601 26.891C23.9334 26.948 25.2419 28.2213 25.3374 29.7899C25.3914 30.6553 25.0959 31.4786 24.5048 32.1076C23.9226 32.7275 23.099 33.0833 22.2484 33.0833C21.6014 33.0833 20.9832 32.8865 20.457 32.514C20.2551 32.3701 20.2065 32.0888 20.3506 31.8859C20.4948 31.6828 20.776 31.6348 20.9778 31.779C21.3509 32.0427 21.7906 32.1822 22.2484 32.1822C22.8611 32.1822 23.4288 31.9365 23.8487 31.4903C24.2669 31.0444 24.4777 30.4603 24.4381 29.8456C24.3696 28.734 23.4432 27.832 22.3295 27.7916C21.6969 27.7743 21.0805 28.0225 20.6498 28.4837C20.3939 28.7556 20.0389 28.9111 19.6766 28.9111C18.8043 28.9111 18.1087 28.215 18.1087 27.3594V21.3833H11.4819V21.8969C11.4819 22.1496 11.5702 22.381 11.7324 22.5484C12.2929 23.1284 12.6011 23.8916 12.6011 24.6976C12.6011 25.5493 12.2443 26.3725 11.6243 26.9559C10.9953 27.5471 10.1717 27.8442 9.30665 27.7893C7.73872 27.6927 6.46636 26.3844 6.40869 24.8113C6.37985 23.9722 6.68082 23.177 7.25212 22.5713C7.43054 22.3846 7.52786 22.153 7.52786 21.9185V21.3833H0.901109V38.5909H8.70471C8.95342 38.5909 9.15526 38.7927 9.15526 39.0414C9.15526 39.2903 8.95342 39.492 8.70471 39.492Z" fill="#192331"/>
<path fill-rule="evenodd" clip-rule="evenodd" d="M39.4289 10.2696V18.5598H31.9011V17.5734C31.9011 17.2126 32.0506 16.8729 32.2994 16.611C32.7661 16.1158 33.0455 15.4392 33.0184 14.6978C32.9716 13.351 31.8884 12.2367 30.5422 12.1534C29.0049 12.0583 27.7289 13.2771 27.7289 14.7942C27.7289 15.5083 28.0119 16.1565 28.4714 16.6321C28.7201 16.8889 28.8481 17.2386 28.8481 17.5956V18.5598H21.3202V12.134C21.3202 11.5252 20.8264 11.0319 20.2173 11.0319H20.2011C19.9578 11.0319 19.7271 11.1375 19.5595 11.3169C19.0585 11.8521 18.334 12.1787 17.5338 12.1504C16.1875 12.1024 15.0738 11.0186 14.9909 9.67413C14.8953 8.13648 16.1136 6.85925 17.6311 6.85925C18.3898 6.85925 19.0747 7.17878 19.5559 7.69061C19.7253 7.87065 19.956 7.9786 20.2029 7.9786H20.2173C20.8264 7.9786 21.3202 7.48516 21.3202 6.87637V0.450562H30.7062L39.4289 10.2696Z" fill="#F3F6F5"/>
<path fill-rule="evenodd" clip-rule="evenodd" d="M39.4289 19.0103H31.901C31.6523 19.0103 31.4505 18.8087 31.4505 18.5598V17.5734C31.4505 17.1075 31.6361 16.6557 31.9713 16.3012C32.3786 15.8716 32.5895 15.3079 32.5696 14.7138C32.53 13.599 31.6271 12.6719 30.5151 12.6031C29.9024 12.5654 29.3166 12.775 28.8715 13.1942C28.4245 13.6138 28.1794 14.182 28.1794 14.7942C28.1794 15.3668 28.3975 15.9082 28.7958 16.3189C29.1202 16.6545 29.2986 17.1079 29.2986 17.5956V18.5598C29.2986 18.8087 29.0968 19.0103 28.8481 19.0103H21.3202C21.0715 19.0103 20.8696 18.8087 20.8696 18.5598V12.134C20.8696 11.7748 20.5777 11.4825 20.2172 11.4825C20.0857 11.4825 19.9739 11.5329 19.8874 11.6248C19.2765 12.2767 18.415 12.6323 17.5175 12.6006C15.946 12.5447 14.6376 11.2716 14.5403 9.70224C14.4862 8.83627 14.7836 8.0132 15.3747 7.38405C15.9586 6.76408 16.7804 6.40869 17.6311 6.40869C18.4799 6.40869 19.3017 6.76318 19.8838 7.38152C19.9739 7.47632 20.0857 7.52804 20.2028 7.52804C20.5777 7.52804 20.8696 7.23572 20.8696 6.87636V0.450554C20.8696 0.201668 21.0715 0 21.3202 0H30.7062C30.9549 0 31.1567 0.201668 31.1567 0.450554C31.1567 0.699441 30.9549 0.901109 30.7062 0.901109H21.7708V6.87636C21.7708 7.73259 21.0733 8.42915 20.2172 8.42915C19.8406 8.42915 19.4837 8.27236 19.2278 7.99878C18.8097 7.55472 18.242 7.30979 17.6311 7.30979C17.0183 7.30979 16.4506 7.55526 16.0325 8.0013C15.6126 8.44753 15.4017 9.03181 15.4396 9.64655C15.5081 10.7582 16.4362 11.6603 17.55 11.7C18.1843 11.7245 18.7971 11.4708 19.2314 11.0087C19.4855 10.7371 19.8388 10.5814 20.201 10.5814C21.0733 10.5814 21.7708 11.2779 21.7708 12.134V18.1092H28.3975V17.5956C28.3975 17.3467 28.3056 17.1095 28.147 16.9453C27.5865 16.3658 27.2783 15.6018 27.2783 14.7942C27.2783 13.9432 27.6334 13.1207 28.2533 12.5377C28.8823 11.9465 29.7059 11.6497 30.571 11.7038C32.1407 11.8007 33.4131 13.109 33.469 14.6818C33.4996 15.5189 33.2004 16.314 32.6255 16.9207C32.4489 17.1072 32.3516 17.339 32.3516 17.5734V18.1092H38.9783V10.2696C38.9783 10.0209 39.1802 9.81902 39.4289 9.81902C39.6776 9.81902 39.8794 10.0209 39.8794 10.2696V18.5598C39.8794 18.8087 39.6776 19.0103 39.4289 19.0103Z" fill="#192331"/>
<path fill-rule="evenodd" clip-rule="evenodd" d="M7.19084 17.9164C6.98539 17.9164 6.80156 17.776 6.7529 17.5682L5.08585 10.4311C5.02998 10.1889 5.17956 9.94646 5.42286 9.88987L11.6531 8.43512C11.8964 8.37853 12.1361 8.52919 12.1938 8.77141C12.2497 9.01363 12.1001 9.25603 11.8568 9.31262L6.06626 10.665L7.63058 17.3633C7.68645 17.6055 7.53506 17.8479 7.29357 17.9045C7.25932 17.9124 7.22508 17.9164 7.19084 17.9164Z" fill="#4284F3"/>
<path fill-rule="evenodd" clip-rule="evenodd" d="M28.6823 32.4547C28.4786 32.4547 28.2948 32.3154 28.2444 32.1085C28.1867 31.8665 28.3363 31.6234 28.5796 31.5657L34.3629 30.1848L32.7661 23.4943C32.7084 23.2523 32.858 23.0091 33.0995 22.9515C33.341 22.8934 33.5843 23.043 33.6438 23.2852L35.3451 30.4139C35.3721 30.5301 35.3523 30.6527 35.291 30.7543C35.2279 30.8563 35.127 30.929 35.0117 30.9567L28.7886 32.4421C28.7526 32.4506 28.7183 32.4547 28.6823 32.4547Z" fill="#4284F3"/>
<path fill-rule="evenodd" clip-rule="evenodd" d="M18.5592 32.7066V39.0414H11.199C11.1881 38.8936 11.1827 38.744 11.1827 38.5944C11.1827 35.2603 13.8861 32.557 17.2202 32.557C17.6815 32.557 18.1285 32.6093 18.5592 32.7066Z" fill="#4284F3"/>
<path fill-rule="evenodd" clip-rule="evenodd" d="M11.6333 38.5908H18.1087V33.0784C17.8149 33.0313 17.5175 33.0076 17.2202 33.0076C14.1402 33.0076 11.6351 35.5119 11.6333 38.5908ZM19.0098 39.4919H10.779L10.7502 39.074C10.7376 38.9152 10.7322 38.7539 10.7322 38.5944C10.7322 35.0168 13.6428 32.1064 17.2202 32.1064C17.7032 32.1064 18.1861 32.1605 18.6583 32.2672L19.0098 32.3465V39.4919Z" fill="#4284F3"/>
<path fill-rule="evenodd" clip-rule="evenodd" d="M33.0509 0.450562H39.3857V7.81082C39.2379 7.82163 39.0883 7.82704 38.9387 7.82704C35.6046 7.82704 32.9013 5.12371 32.9013 1.78961C32.9013 1.32824 32.9536 0.881291 33.0509 0.450562Z" fill="#192331"/>
<path fill-rule="evenodd" clip-rule="evenodd" d="M33.4239 0.901109C33.3753 1.19505 33.3519 1.49278 33.3519 1.7896C33.3519 4.86887 35.8569 7.37449 38.9351 7.37648V0.901109H33.4239ZM38.9387 8.27759C35.3613 8.27759 32.4507 5.36718 32.4507 1.7896C32.4507 1.30715 32.5048 0.823073 32.6111 0.351252C32.658 0.14598 32.84 0 33.0509 0H39.3857C39.6344 0 39.8362 0.201668 39.8362 0.450554V7.81081C39.8362 8.0469 39.6542 8.2428 39.4181 8.2601C39.2613 8.27182 39.0991 8.27759 38.9387 8.27759Z" fill="#192331"/>
</svg>

<svg width="40" height="40" fill="none" xmlns="http://www.w3.org/2000/svg"><path fill-rule="evenodd" clip-rule="evenodd" d="M36.439 37.908h-3.064a.45.45 0 110-.901h3.064a.45.45 0 010 .901z" fill="#192331"/><path fill-rule="evenodd" clip-rule="evenodd" d="M34.907 39.44a.45.45 0 01-.45-.45v-3.065a.45.45 0 11.9 0v3.064a.45.45 0 01-.45.45z" fill="#192331"/><path fill-rule="evenodd" clip-rule="evenodd" d="M4.334 2.253a1.353 1.353 0 000 2.703 1.353 1.353 0 000-2.703zm0 3.604a2.256 2.256 0 01-2.252-2.253 2.256 2.256 0 012.252-2.252 2.256 2.256 0 012.253 2.252 2.256 2.256 0 01-2.253 2.253z" fill="#4284F3"/><path fill-rule="evenodd" clip-rule="evenodd" d="M20.718 32.147a2.858 2.858 0 01-.183-.143l.183.143z" fill="#F3F6F5"/><path fill-rule="evenodd" clip-rule="evenodd" d="M20.718 32.597a.453.453 0 01-.261-.083 3.155 3.155 0 01-.215-.167.45.45 0 11.584-.686c.05.041.1.08.152.118a.45.45 0 01-.26.818z" fill="#192331"/><path fill-rule="evenodd" clip-rule="evenodd" d="M8.705 39.041H.45V20.933h7.527v.986c0 .36-.15.7-.398.962a2.644 2.644 0 00-.72 1.914 2.661 2.661 0 002.475 2.545 2.647 2.647 0 002.073-4.479 1.384 1.384 0 01-.377-.964v-.964h7.528v6.426c0 .608.494 1.102 1.101 1.102h.017a.885.885 0 00.643-.285 2.642 2.642 0 012.026-.835 2.66 2.66 0 012.543 2.477 2.645 2.645 0 01-4.17 2.329L8.704 39.04z" fill="#F3F6F5"/><path fill-rule="evenodd" clip-rule="evenodd" d="M8.705 39.492H.45a.45.45 0 01-.451-.45v-18.11a.45.45 0 01.45-.45h7.528a.45.45 0 01.451.45v.987c0 .467-.186.919-.523 1.273a2.185 2.185 0 00-.596 1.588 2.211 2.211 0 002.053 2.11 2.18 2.18 0 001.645-.59c.445-.42.692-.99.692-1.602 0-.572-.218-1.113-.616-1.524a1.826 1.826 0 01-.503-1.277v-.964a.45.45 0 01.45-.45h7.528a.45.45 0 01.45.45v6.426c0 .36.293.651.651.651.134 0 .245-.05.332-.143a3.117 3.117 0 012.368-.976c1.573.057 2.882 1.33 2.977 2.899a3.071 3.071 0 01-.832 2.318 3.109 3.109 0 01-2.257.975 3.081 3.081 0 01-1.791-.569.451.451 0 01.52-.735 2.19 2.19 0 001.271.403c.613 0 1.18-.246 1.6-.692.419-.446.63-1.03.59-1.644a2.21 2.21 0 00-2.108-2.054 2.216 2.216 0 00-1.68.692 1.345 1.345 0 01-.973.427 1.557 1.557 0 01-1.568-1.552v-5.976h-6.627v.514c0 .253.088.484.25.651.56.58.87 1.344.87 2.15 0 .851-.358 1.674-.978 2.258a3.069 3.069 0 01-2.317.833c-1.568-.096-2.84-1.405-2.898-2.978a3.087 3.087 0 01.843-2.24.949.949 0 00.276-.652v-.536H.9v17.208h7.804a.45.45 0 010 .901z" fill="#192331"/><path fill-rule="evenodd" clip-rule="evenodd" d="M39.429 10.27v8.29H31.9v-.987c0-.36.15-.7.398-.962a2.639 2.639 0 00.72-1.913 2.658 2.658 0 00-2.477-2.545 2.646 2.646 0 00-2.07 4.48c.248.256.376.606.376.963v.964H21.32v-6.426c0-.609-.494-1.102-1.103-1.102h-.016a.88.88 0 00-.642.285 2.637 2.637 0 01-2.025.833 2.66 2.66 0 01-2.543-2.476 2.646 2.646 0 014.565-1.983c.17.18.4.288.647.288h.014c.61 0 1.103-.494 1.103-1.103V.451h9.386l8.723 9.819z" fill="#F3F6F5"/><path fill-rule="evenodd" clip-rule="evenodd" d="M39.429 19.01H31.9a.45.45 0 01-.45-.45v-.987c0-.465.185-.917.52-1.272.408-.43.619-.993.599-1.587a2.211 2.211 0 00-2.055-2.11 2.18 2.18 0 00-1.643.59 2.17 2.17 0 00-.693 1.6c0 .573.219 1.114.617 1.525.324.335.503.789.503 1.277v.964a.45.45 0 01-.45.45H21.32a.45.45 0 01-.45-.45v-6.426a.652.652 0 00-.653-.652.44.44 0 00-.33.143 3.093 3.093 0 01-2.37.976 3.12 3.12 0 01-2.977-2.899 3.073 3.073 0 01.835-2.318 3.11 3.11 0 012.256-.975c.849 0 1.67.354 2.253.973a.44.44 0 00.319.146.656.656 0 00.667-.652V.451A.45.45 0 0121.32 0h9.386a.45.45 0 010 .901h-8.935v5.975c0 .857-.698 1.553-1.554 1.553a1.36 1.36 0 01-.99-.43 2.173 2.173 0 00-1.596-.69 2.17 2.17 0 00-1.599.692 2.18 2.18 0 00-.592 1.646 2.211 2.211 0 002.11 2.053 2.193 2.193 0 001.681-.691c.254-.272.608-.428.97-.428.872 0 1.57.697 1.57 1.553v5.975h6.627v-.513a.94.94 0 00-.251-.65 3.078 3.078 0 01-.869-2.152c0-.85.355-1.673.975-2.256a3.072 3.072 0 012.318-.834c1.57.097 2.842 1.405 2.898 2.978a3.067 3.067 0 01-.843 2.239.954.954 0 00-.274.652v.536h6.626v-7.84a.45.45 0 01.901 0v8.29a.45.45 0 01-.45.451z" fill="#192331"/><path fill-rule="evenodd" clip-rule="evenodd" d="M7.19 17.916a.45.45 0 01-.437-.348l-1.667-7.137a.45.45 0 01.337-.541l6.23-1.455a.45.45 0 11.204.878l-5.79 1.352 1.564 6.698a.452.452 0 01-.44.553zm21.492 14.539a.45.45 0 01-.103-.889l5.784-1.381-1.597-6.69a.45.45 0 01.878-.21l1.701 7.129a.454.454 0 01-.333.543l-6.223 1.485a.454.454 0 01-.107.013zm-10.122.252v6.334h-7.361a6.038 6.038 0 017.36-6.335z" fill="#4284F3"/><path fill-rule="evenodd" clip-rule="evenodd" d="M11.633 38.59h6.476v-5.512a5.593 5.593 0 00-6.475 5.512zm7.377.902h-8.231l-.029-.418a6.495 6.495 0 017.908-6.807l.352.08v7.145z" fill="#4284F3"/><path fill-rule="evenodd" clip-rule="evenodd" d="M33.05.45h6.336v7.36A6.038 6.038 0 0133.05.45z" fill="#192331"/><path fill-rule="evenodd" clip-rule="evenodd" d="M33.424.901a5.594 5.594 0 005.511 6.475V.901h-5.511zm5.515 7.377A6.495 6.495 0 0132.61.35a.451.451 0 01.44-.351h6.335a.45.45 0 01.45.45v7.36a.45.45 0 01-.418.45 6.48 6.48 0 01-.48.018z" fill="#192331"/></svg>
